X:1
T:Title
%%score { 1 | 2 }
L:1/8
M:4/4
K:Db
V:1 treble nm="Grand Piano"
V:2 bass 
V:1
 z4 z2[Q:1/4=96] DE | F_F=F_F =FABF | A2 G2 G2 EF | G3 [FA] [GB]2 [FA]2 | F6 DE | F_F=F_F =FABF | %6
 A2 G2 G4 | EFG[DFA] [DGB] [DFA]2 [Fd] |[M:5/4] [=Gd]2 c2 [Fd]6 | %9
[M:4/4] [Fd][Fc][Fe][Fd] [FA] F2 D | G2 G2 [EG]4 | [Gc][GB]dc B G2 E | A2 A2 A4 | %13
 [Fd][Fc][Fe][Fd] [FA]2 [FA]2 | BAGF B4 | EFG[DFA] [DGB] [DFA]2 [Fd] |[M:7/8] [=Gd]2 c2 [Fd]3 |] %17
V:2
 z4 z2 [D,F,][D,G,D] | [D,A,D][E,=G,D][D,A,D][D,G,D] [D,A,D][D,F,D][D,_G,D][D,A,D] | %2
 [D,F,D]2 [E,A,C]2 [E,A,C]2 [G,A,C][F,A,D] | [E,A,E]3 [D,A,] [A,,A,]2 [A,,A,]2 | %4
 [D,A,D]6 [D,F,][D,G,D] | [D,A,D][D,=G,D][D,A,D][D,G,D] [D,A,D][D,F,D][D,_G,D][D,A,D] | %6
 [D,F,D]2 [E,A,C]2 [E,A,C]4 | [G,A,C][F,A,D][E,A,E]D, G,, A,,2 A, |[M:5/4] [E,B,]2 [A,G]2 [D,A,]6 | %9
[M:4/4] [D,A,][D,A,][D,A,][D,A,] [D,D] [D,A,D]2 [D,A,] | [E,A,C]2 [D,A,D]2 [C,A,]4 | %11
 [A,,A,][A,,A,][K:treble][A,G][A,G] [A,DG][K:bass] [A,CE]2 [G,A,C] | [F,A,D]2 [E,A,C]2 [D,F,D]4 | %13
 [D,A,][D,A,][D,A,][D,A,] [D,D]2 [D,D]2 | [G,DG][A,DF][K:bass][A,CE][A,D] [G,B,D]4 | %15
 [G,A,C][F,A,D][E,A,E]D, G,, A,,2 A, |[M:7/8] [E,B,]2 [A,G]2 [D,A,]3 |] %17

